actions/48/appointment-new.svg

<?xml version="1.0" encoding="UTF-8" standalone="no"?>
<!-- Created with Inkscape (http://www.inkscape.org/) -->

<svg
   xmlns:svg="http://www.w3.org/2000/svg"
   xmlns="http://www.w3.org/2000/svg"
   xmlns:xlink="http://www.w3.org/1999/xlink"
   version="1.1"
   width="48"
   height="48"
   id="svg3081">
  <defs
     id="defs3083">
    <linearGradient
       id="linearGradient8838-795">
      <stop
         id="stop2737"
         style="stop-color:black;stop-opacity:1"
         offset="0" />
      <stop
         id="stop2739"
         style="stop-color:black;stop-opacity:0"
         offset="1" />
    </linearGradient>
    <radialGradient
       cx="62.625"
       cy="4.625"
       r="10.625"
       fx="62.625"
       fy="4.625"
       id="radialGradient3546"
       xlink:href="#linearGradient8838-795"
       gradientUnits="userSpaceOnUse"
       gradientTransform="matrix(1,0,0,0.341176,0,3.047059)" />
    <linearGradient
       id="linearGradient37935">
      <stop
         id="stop37937"
         style="stop-color:#7c7c7c;stop-opacity:1"
         offset="0" />
      <stop
         id="stop37939"
         style="stop-color:#242424;stop-opacity:1"
         offset="1" />
    </linearGradient>
    <linearGradient
       x1="15.655657"
       y1="13.360059"
       x2="15.655657"
       y2="44.785629"
       id="linearGradient3571"
       xlink:href="#linearGradient37935"
       gradientUnits="userSpaceOnUse"
       gradientTransform="translate(0.749992,5e-8)" />
    <linearGradient
       id="linearGradient4873-625-158-888-767">
      <stop
         id="stop4258"
         style="stop-color:white;stop-opacity:1"
         offset="0" />
      <stop
         id="stop4260"
         style="stop-color:white;stop-opacity:0"
         offset="1" />
    </linearGradient>
    <linearGradient
       x1="63.397362"
       y1="-9.3832779"
       x2="63.397362"
       y2="7.4434662"
       id="linearGradient3568"
       xlink:href="#linearGradient4873-625-158-888-767"
       gradientUnits="userSpaceOnUse"
       gradientTransform="matrix(2.149872,0,0,2.149872,-109.36554,31.935343)" />
    <linearGradient
       id="linearGradient42174">
      <stop
         id="stop42176"
         style="stop-color:#a0a0a0;stop-opacity:1"
         offset="0" />
      <stop
         id="stop42178"
         style="stop-color:white;stop-opacity:1"
         offset="1" />
    </linearGradient>
    <linearGradient
       x1="6.342216"
       y1="7.7893324"
       x2="22.218424"
       y2="25.884274"
       id="linearGradient3565"
       xlink:href="#linearGradient42174"
       gradientUnits="userSpaceOnUse" />
    <linearGradient
       id="linearGradient2145">
      <stop
         id="stop2147"
         style="stop-color:#fffffd;stop-opacity:1"
         offset="0" />
      <stop
         id="stop2149"
         style="stop-color:#cbcbc9;stop-opacity:1"
         offset="1" />
    </linearGradient>
    <radialGradient
       cx="11.901996"
       cy="10.045444"
       r="29.292715"
       fx="11.901996"
       fy="10.045444"
       id="radialGradient3563"
       xlink:href="#linearGradient2145"
       gradientUnits="userSpaceOnUse" />
    <linearGradient
       id="linearGradient4222">
      <stop
         id="stop4224"
         style="stop-color:white;stop-opacity:1"
         offset="0" />
      <stop
         id="stop4226"
         style="stop-color:white;stop-opacity:0"
         offset="1" />
    </linearGradient>
    <linearGradient
       x1="24.138529"
       y1="-9.8008652"
       x2="24.138529"
       y2="47.272728"
       id="linearGradient5206"
       xlink:href="#linearGradient4222"
       gradientUnits="userSpaceOnUse"
       gradientTransform="matrix(0.5364316,0,0,0.5331957,-15.687737,50.16873)" />
    <linearGradient
       id="linearGradient2264">
      <stop
         id="stop2266"
         style="stop-color:#d7e866;stop-opacity:1"
         offset="0" />
      <stop
         id="stop2268"
         style="stop-color:#8cab2a;stop-opacity:1"
         offset="1" />
    </linearGradient>
    <linearGradient
       x1="24.103895"
       y1="15.168831"
       x2="24.103895"
       y2="32.485161"
       id="linearGradient5204"
       xlink:href="#linearGradient2264"
       gradientUnits="userSpaceOnUse"
       gradientTransform="matrix(0.8930497,0,0,0.8876627,-24.246571,42.1613)" />
  </defs>
  <g
     id="layer1">
    <path
       d="m 73.25,4.625 a 10.625,3.625 0 1 1 -21.25,0 10.625,3.625 0 1 1 21.25,0 z"
       transform="matrix(2.149872,0,0,2.5636643,-110.63573,26.84977)"
       id="path8836"
       style="opacity:0.56043958;fill:url(#radialGradient3546);fill-opacity:1;fill-rule:evenodd;stroke:none;stroke-width:0.99999988;marker:none;visibility:visible;display:inline;overflow:visible" />
    <path
       d="m 44.254925,24.386798 c 0,10.989786 -8.909149,19.898833 -19.897424,19.898833 -10.989282,0 -19.897925,-8.909148 -19.897925,-19.898833 0,-10.989282 8.908643,-19.8974244 19.897925,-19.8974244 10.988275,0 19.897424,8.9081424 19.897424,19.8974244 l 0,0 z"
       id="path6495"
       style="fill:url(#linearGradient3571);fill-opacity:1;fill-rule:nonzero;stroke:#333;stroke-width:1;stroke-miterlimit:4;stroke-dasharray:none" />
    <path
       d="m 43.159073,24.38683 c 0,10.384468 -8.41843,18.802802 -18.801469,18.802802 -10.383989,0 -18.801944,-8.41843 -18.801944,-18.802802 0,-10.383988 8.417955,-18.8014688 18.801944,-18.8014688 10.383039,0 18.801469,8.4174808 18.801469,18.8014688 l 0,0 z"
       id="path8655"
       style="opacity:0.4;fill:none;stroke:url(#linearGradient3568);stroke-width:1;stroke-miterlimit:4;stroke-opacity:1;stroke-dasharray:none" />
    <path
       d="m 31.160714,16.910715 a 14.910714,14.910714 0 1 1 -29.8214281,0 14.910714,14.910714 0 1 1 29.8214281,0 z"
       transform="matrix(1.0989743,0,0,1.0990035,6.4989174,5.6021946)"
       id="path35549"
       style="fill:url(#radialGradient3563);fill-opacity:1;fill-rule:evenodd;stroke:url(#linearGradient3565);stroke-width:0.84248883;stroke-linecap:round;stroke-linejoin:bevel;stroke-miterlimit:4;stroke-opacity:1;stroke-dasharray:none;stroke-dashoffset:0" />
    <path
       d="m 10.358832,24.537057 c 2.766321,0 3.11659,-0.07959 3.11659,-0.07959"
       id="path2291"
       style="fill:#616161;fill-opacity:1;fill-rule:evenodd;stroke:#5f5f5f;stroke-width:0.92588592;stroke-linecap:round;stroke-linejoin:miter;stroke-miterlimit:4;stroke-opacity:1;stroke-dasharray:none" />
    <path
       d="m 35.518785,24.537057 c 2.766323,0 3.116593,-0.07959 3.116593,-0.07959"
       id="path2296"
       style="fill:#1f1f1f;fill-opacity:1;fill-rule:evenodd;stroke:#1f1f1f;stroke-width:0.92588592;stroke-linecap:round;stroke-linejoin:miter;stroke-miterlimit:4;stroke-opacity:1;stroke-dasharray:none" />
    <path
       d="m 24.542531,38.01125 c 0,-2.76632 -0.07959,-3.11659 -0.07959,-3.11659"
       id="path2306"
       style="fill:#131313;fill-opacity:1;fill-rule:evenodd;stroke:#121212;stroke-width:0.92588592;stroke-linecap:round;stroke-linejoin:miter;stroke-miterlimit:4;stroke-opacity:1;stroke-dasharray:none" />
    <path
       d="m 24.542531,13.060941 c 0,-2.766358 -0.07959,-3.1166318 -0.07959,-3.1166318"
       id="path2308"
       style="fill:#1f1f1f;fill-opacity:1;fill-rule:evenodd;stroke:#727272;stroke-width:0.92588592;stroke-linecap:round;stroke-linejoin:miter;stroke-miterlimit:4;stroke-opacity:1;stroke-dasharray:none" />
    <g
       transform="matrix(0.5733387,0,0,0.5733387,11.655599,11.154465)"
       id="g2318"
       style="stroke-width:1.61490202;stroke-linecap:round;stroke-miterlimit:4;stroke-dasharray:none">
      <path
         d="M 21.168246,23.652869 40.199004,4.6221125"
         id="path2312"
         style="fill:none;stroke:black;stroke-width:1.61490202;stroke-linecap:round;stroke-linejoin:miter;stroke-miterlimit:4;stroke-opacity:1;stroke-dasharray:none" />
      <path
         d="M 24.25811,23.793317 11.547531,11.082739"
         id="path2314"
         style="fill:none;stroke:black;stroke-width:1.61490202;stroke-linecap:round;stroke-linejoin:miter;stroke-miterlimit:4;stroke-opacity:1;stroke-dasharray:none" />
      <path
         d="M 21.589592,22.66973 43.260774,16.862955"
         id="path2316"
         style="fill:red;fill-rule:evenodd;stroke:red;stroke-width:1.61490202;stroke-linecap:round;stroke-linejoin:miter;stroke-miterlimit:4;stroke-opacity:1;stroke-dasharray:none" />
    </g>
    <g
       transform="translate(40.86706,-25.532011)"
       id="g5278">
      <path
         d="m -6.3335818,60.032011 0,-5.001447 6.96652204,0 0,5.001447 5.00144796,0 0,7 -5.00144796,0 0,5 -6.97259004,0 -0.027688,-5 -4.9997222,0 0,-7 5.0334782,0 z"
         id="path2262"
         style="fill:url(#linearGradient5204);fill-opacity:1;fill-rule:evenodd;stroke:#42770c;stroke-width:1;stroke-linecap:butt;stroke-linejoin:round;stroke-miterlimit:4;stroke-opacity:1;stroke-dasharray:none" />
      <path
         d="m -5.3670598,61.032011 0,-5 5.00144004,0 0,5 4.99855996,0 0,4.925922 -4.99855996,-0.01562 0,5.089698 -5.00144004,0 0,-5.000007 -5.0000002,0 0,-4.999993 5.0000002,0 z"
         id="path2272"
         style="fill:none;stroke:url(#linearGradient5206);stroke-width:1;stroke-linecap:butt;stroke-linejoin:miter;stroke-miterlimit:4;stroke-opacity:1;stroke-dasharray:none" />
    </g>
  </g>
</svg>

<?xml version="1.0" encoding="UTF-8" standalone="no"?>
<!-- Created with Inkscape (http://www.inkscape.org/) -->
<svg
   xmlns:dc="http://purl.org/dc/elements/1.1/"
   xmlns:cc="http://creativecommons.org/ns#"
   xmlns:rdf="http://www.w3.org/1999/02/22-rdf-syntax-ns#"
   xmlns:svg="http://www.w3.org/2000/svg"
   xmlns="http://www.w3.org/2000/svg"
   xmlns:xlink="http://www.w3.org/1999/xlink"
   xmlns:sodipodi="http://sodipodi.sourceforge.net/DTD/sodipodi-0.dtd"
   xmlns:inkscape="http://www.inkscape.org/namespaces/inkscape"
   width="48px"
   height="48px"
   id="svg3081"
   sodipodi:version="0.32"
   inkscape:version="0.46"
   sodipodi:docname="appointment-new.svg"
   inkscape:output_extension="org.inkscape.output.svg.inkscape">
  <defs
     id="defs3083">
    <linearGradient
       inkscape:collect="always"
       id="linearGradient8838-795">
      <stop
         style="stop-color:#000000;stop-opacity:1;"
         offset="0"
         id="stop2737" />
      <stop
         style="stop-color:#000000;stop-opacity:0;"
         offset="1"
         id="stop2739" />
    </linearGradient>
    <radialGradient
       inkscape:collect="always"
       xlink:href="#linearGradient8838-795"
       id="radialGradient3546"
       gradientUnits="userSpaceOnUse"
       gradientTransform="matrix(1,0,0,0.341176,0,3.047059)"
       cx="62.625"
       cy="4.625"
       fx="62.625"
       fy="4.625"
       r="10.625" />
    <linearGradient
       id="linearGradient37935">
      <stop
         id="stop37937"
         offset="0"
         style="stop-color:#7c7c7c;stop-opacity:1;" />
      <stop
         id="stop37939"
         offset="1"
         style="stop-color:#242424;stop-opacity:1;" />
    </linearGradient>
    <linearGradient
       inkscape:collect="always"
       xlink:href="#linearGradient37935"
       id="linearGradient3571"
       gradientUnits="userSpaceOnUse"
       gradientTransform="translate(0.749992,5e-8)"
       x1="15.655657"
       y1="13.360059"
       x2="15.655657"
       y2="44.785629" />
    <linearGradient
       id="linearGradient4873-625-158-888-767"
       inkscape:collect="always">
      <stop
         id="stop4258"
         offset="0"
         style="stop-color:#ffffff;stop-opacity:1;" />
      <stop
         id="stop4260"
         offset="1"
         style="stop-color:#ffffff;stop-opacity:0;" />
    </linearGradient>
    <linearGradient
       inkscape:collect="always"
       xlink:href="#linearGradient4873-625-158-888-767"
       id="linearGradient3568"
       gradientUnits="userSpaceOnUse"
       gradientTransform="matrix(2.149872,0,0,2.149872,-109.36554,31.935343)"
       x1="63.397362"
       y1="-9.3832779"
       x2="63.397362"
       y2="7.4434662" />
    <linearGradient
       id="linearGradient42174">
      <stop
         style="stop-color:#a0a0a0;stop-opacity:1.0000000;"
         offset="0.0000000"
         id="stop42176" />
      <stop
         style="stop-color:#ffffff;stop-opacity:1.0000000;"
         offset="1.0000000"
         id="stop42178" />
    </linearGradient>
    <linearGradient
       inkscape:collect="always"
       xlink:href="#linearGradient42174"
       id="linearGradient3565"
       gradientUnits="userSpaceOnUse"
       x1="6.342216"
       y1="7.7893324"
       x2="22.218424"
       y2="25.884274" />
    <linearGradient
       id="linearGradient2145">
      <stop
         style="stop-color:#fffffd;stop-opacity:1.0000000;"
         offset="0.0000000"
         id="stop2147" />
      <stop
         style="stop-color:#cbcbc9;stop-opacity:1.0000000;"
         offset="1.0000000"
         id="stop2149" />
    </linearGradient>
    <radialGradient
       inkscape:collect="always"
       xlink:href="#linearGradient2145"
       id="radialGradient3563"
       gradientUnits="userSpaceOnUse"
       cx="11.901996"
       cy="10.045444"
       fx="11.901996"
       fy="10.045444"
       r="29.292715" />
    <linearGradient
       id="linearGradient4222"
       inkscape:collect="always">
      <stop
         id="stop4224"
         offset="0"
         style="stop-color:#ffffff;stop-opacity:1;" />
      <stop
         id="stop4226"
         offset="1"
         style="stop-color:#ffffff;stop-opacity:0;" />
    </linearGradient>
    <linearGradient
       inkscape:collect="always"
       xlink:href="#linearGradient4222"
       id="linearGradient5206"
       gradientUnits="userSpaceOnUse"
       gradientTransform="matrix(0.5364316,0,0,0.5331957,-15.687737,50.16873)"
       x1="24.138529"
       y1="-9.8008652"
       x2="24.138529"
       y2="47.272728" />
    <linearGradient
       id="linearGradient2264">
      <stop
         id="stop2266"
         offset="0"
         style="stop-color:#d7e866;stop-opacity:1;" />
      <stop
         id="stop2268"
         offset="1"
         style="stop-color:#8cab2a;stop-opacity:1;" />
    </linearGradient>
    <linearGradient
       inkscape:collect="always"
       xlink:href="#linearGradient2264"
       id="linearGradient5204"
       gradientUnits="userSpaceOnUse"
       gradientTransform="matrix(0.8930497,0,0,0.8876627,-24.246571,42.1613)"
       x1="24.103895"
       y1="15.168831"
       x2="24.103895"
       y2="32.485161" />
  </defs>
  <sodipodi:namedview
     id="base"
     pagecolor="#ffffff"
     bordercolor="#666666"
     borderopacity="1.0"
     inkscape:pageopacity="0.0"
     inkscape:pageshadow="2"
     inkscape:zoom="7"
     inkscape:cx="24"
     inkscape:cy="24"
     inkscape:current-layer="layer1"
     showgrid="true"
     inkscape:grid-bbox="true"
     inkscape:document-units="px"
     inkscape:window-width="640"
     inkscape:window-height="720"
     inkscape:window-x="800"
     inkscape:window-y="88" />
  <metadata
     id="metadata3086">
    <rdf:RDF>
      <cc:Work
         rdf:about="">
        <dc:format>image/svg+xml</dc:format>
        <dc:type
           rdf:resource="http://purl.org/dc/dcmitype/StillImage" />
      </cc:Work>
    </rdf:RDF>
  </metadata>
  <g
     id="layer1"
     inkscape:label="Layer 1"
     inkscape:groupmode="layer">
    <path
       transform="matrix(2.149872,0,0,2.5636643,-110.63573,26.84977)"
       d="M 73.25,4.625 A 10.625,3.625 0 1 1 52,4.625 A 10.625,3.625 0 1 1 73.25,4.625 z"
       sodipodi:ry="3.625"
       sodipodi:rx="10.625"
       sodipodi:cy="4.625"
       sodipodi:cx="62.625"
       id="path8836"
       style="opacity:0.56043958000000005;fill:url(#radialGradient3546);fill-opacity:1;fill-rule:evenodd;stroke:none;stroke-width:0.99999987999999995;stroke-linecap:butt;stroke-linejoin:round;marker:none;marker-start:none;marker-mid:none;marker-end:none;stroke-miterlimit:4;stroke-dasharray:none;stroke-dashoffset:0;stroke-opacity:1;visibility:visible;display:inline;overflow:visible"
       sodipodi:type="arc" />
    <path
       id="path6495"
       d="M 44.254925,24.386798 C 44.254925,35.376584 35.345776,44.285631 24.357501,44.285631 C 13.368219,44.285631 4.459576,35.376483 4.459576,24.386798 C 4.459576,13.397516 13.368219,4.4893736 24.357501,4.4893736 C 35.345776,4.4893736 44.254925,13.397516 44.254925,24.386798 L 44.254925,24.386798 z"
       style="fill:url(#linearGradient3571);fill-opacity:1;fill-rule:nonzero;stroke:#333333;stroke-width:1;stroke-miterlimit:4;stroke-dasharray:none" />
    <path
       style="opacity:0.40000000000000002;fill:none;fill-opacity:1;fill-rule:nonzero;stroke:url(#linearGradient3568);stroke-width:1;stroke-miterlimit:4;stroke-dasharray:none;stroke-opacity:1"
       d="M 43.159073,24.38683 C 43.159073,34.771298 34.740643,43.189632 24.357604,43.189632 C 13.973615,43.189632 5.55566,34.771202 5.55566,24.38683 C 5.55566,14.002842 13.973615,5.5853612 24.357604,5.5853612 C 34.740643,5.5853612 43.159073,14.002842 43.159073,24.38683 L 43.159073,24.38683 z"
       id="path8655" />
    <path
       sodipodi:type="arc"
       style="fill:url(#radialGradient3563);fill-opacity:1;fill-rule:evenodd;stroke:url(#linearGradient3565);stroke-width:0.84248882999999997;stroke-linecap:round;stroke-linejoin:bevel;stroke-miterlimit:4;stroke-dasharray:none;stroke-dashoffset:0;stroke-opacity:1"
       id="path35549"
       sodipodi:cx="16.25"
       sodipodi:cy="16.910715"
       sodipodi:rx="14.910714"
       sodipodi:ry="14.910714"
       d="M 31.160714,16.910715 A 14.910714,14.910714 0 1 1 1.3392859,16.910715 A 14.910714,14.910714 0 1 1 31.160714,16.910715 z"
       transform="matrix(1.0989743,0,0,1.0990035,6.4989174,5.6021946)" />
    <path
       style="fill:#616161;fill-opacity:1;fill-rule:evenodd;stroke:#5f5f5f;stroke-width:0.92588592000000003;stroke-linecap:round;stroke-linejoin:miter;stroke-miterlimit:4;stroke-dasharray:none;stroke-opacity:1"
       d="M 10.358832,24.537057 C 13.125153,24.537057 13.475422,24.457469 13.475422,24.457469"
       id="path2291"
       sodipodi:nodetypes="cc" />
    <path
       style="fill:#1f1f1f;fill-opacity:1;fill-rule:evenodd;stroke:#1f1f1f;stroke-width:0.92588592000000003;stroke-linecap:round;stroke-linejoin:miter;stroke-miterlimit:4;stroke-dasharray:none;stroke-opacity:1"
       d="M 35.518785,24.537057 C 38.285108,24.537057 38.635378,24.457469 38.635378,24.457469"
       id="path2296"
       sodipodi:nodetypes="cc" />
    <path
       style="fill:#131313;fill-opacity:1;fill-rule:evenodd;stroke:#121212;stroke-width:0.92588592000000003;stroke-linecap:round;stroke-linejoin:miter;stroke-miterlimit:4;stroke-dasharray:none;stroke-opacity:1"
       d="M 24.542531,38.01125 C 24.542531,35.24493 24.462943,34.89466 24.462943,34.89466"
       id="path2306"
       sodipodi:nodetypes="cc" />
    <path
       style="fill:#1f1f1f;fill-opacity:1;fill-rule:evenodd;stroke:#727272;stroke-width:0.92588592000000003;stroke-linecap:round;stroke-linejoin:miter;stroke-miterlimit:4;stroke-dasharray:none;stroke-opacity:1"
       d="M 24.542531,13.060941 C 24.542531,10.294583 24.462943,9.9443092 24.462943,9.9443092"
       id="path2308"
       sodipodi:nodetypes="cc" />
    <g
       id="g2318"
       inkscape:transform-center-y="-13.138571"
       inkscape:transform-center-x="-7.2731426"
       transform="matrix(0.5733387,0,0,0.5733387,11.655599,11.154465)"
       style="stroke-width:1.61490201999999994;stroke-linecap:round;stroke-miterlimit:4;stroke-dasharray:none">
      <path
         id="path2312"
         d="M 21.168246,23.652869 L 40.199004,4.6221125"
         style="fill:none;fill-rule:evenodd;stroke:#000000;stroke-width:1.61490202;stroke-linecap:round;stroke-linejoin:miter;stroke-miterlimit:4;stroke-dasharray:none;stroke-opacity:1" />
      <path
         id="path2314"
         d="M 24.25811,23.793317 L 11.547531,11.082739"
         style="fill:none;fill-rule:evenodd;stroke:#000000;stroke-width:1.61490202;stroke-linecap:round;stroke-linejoin:miter;stroke-miterlimit:4;stroke-dasharray:none;stroke-opacity:1" />
      <path
         id="path2316"
         d="M 21.589592,22.66973 L 43.260774,16.862955"
         style="fill:#ff0000;fill-rule:evenodd;stroke:#ff0000;stroke-width:1.61490202;stroke-linecap:round;stroke-linejoin:miter;stroke-miterlimit:4;stroke-dasharray:none;stroke-opacity:1" />
    </g>
    <g
       transform="translate(40.86706,-25.532011)"
       id="g5278">
      <path
         sodipodi:nodetypes="ccccccccccccc"
         id="path2262"
         d="M -6.3335818,60.032011 L -6.3335818,55.030564 L 0.63294024,55.030564 L 0.63294024,60.032011 L 5.6343882,60.032011 L 5.6343882,67.032011 L 0.63294024,67.032011 L 0.63294024,72.032011 L -6.3396498,72.032011 L -6.3673378,67.032011 L -11.36706,67.032011 L -11.36706,60.032011 L -6.3335818,60.032011 z"
         style="fill:url(#linearGradient5204);fill-opacity:1;fill-rule:evenodd;stroke:#42770c;stroke-width:1;stroke-linecap:butt;stroke-linejoin:round;stroke-miterlimit:4;stroke-dasharray:none;stroke-opacity:1" />
      <path
         sodipodi:nodetypes="ccccccccccccc"
         id="path2272"
         d="M -5.3670598,61.032011 L -5.3670598,56.032011 L -0.36561976,56.032011 L -0.36561976,61.032011 L 4.6329402,61.032011 L 4.6329402,65.957933 L -0.36561976,65.942313 L -0.36561976,71.032011 L -5.3670598,71.032011 L -5.3670598,66.032004 L -10.36706,66.032004 L -10.36706,61.032011 L -5.3670598,61.032011 z"
         style="fill:none;fill-opacity:1;fill-rule:evenodd;stroke:url(#linearGradient5206);stroke-width:1;stroke-linecap:butt;stroke-linejoin:miter;stroke-miterlimit:4;stroke-dasharray:none;stroke-opacity:1" />
    </g>
  </g>
</svg>
